Adwaita++-Dark/actions/16/zoom-previous.svg

<svg xmlns="http://www.w3.org/2000/svg" width="16" height="16" viewBox="0 0 16 16">
 <defs>
  <style id="current-color-scheme" type="text/css">
   .ColorScheme-Text { color:#E6DDFF; } .ColorScheme-Highlight { color:#4285f4; }
  </style>
 </defs>
 <path style="fill:currentColor" class="ColorScheme-Text" d="M 3.2167969 2 C 2.5469869 2 1.9980469 2.5248 1.9980469 3.1875 L 1.9980469 7 L 3.9980469 7 L 3.9980469 4 L 6.9980469 4 L 6.9980469 2 L 3.2167969 2 z M 8.9980469 2 L 8.9980469 4 L 11.998047 4 L 11.998047 7 L 13.998047 7 L 13.998047 3.1875 C 13.998047 2.5248 13.449107 2 12.779297 2 L 8.9980469 2 z M 7.9980469 5 L 4.9980469 8 L 7.9980469 11 L 7.9980469 9 L 10.998047 9 L 10.998047 7 L 7.9980469 7 L 7.9980469 5 z M 1.9980469 9 L 1.9980469 12.8125 C 1.9980469 13.4752 2.5469869 14 3.2167969 14 L 6.9980469 14 L 6.9980469 12 L 3.9980469 12 L 3.9980469 9 L 1.9980469 9 z M 11.998047 9 L 11.998047 12 L 8.9980469 12 L 8.9980469 14 L 12.779297 14 C 13.449107 14 13.998047 13.4752 13.998047 12.8125 L 13.998047 9 L 11.998047 9 z"/>
</svg>

<svg height="16" viewBox="0 0 16 16" width="16" xmlns="http://www.w3.org/2000/svg">
  <path d="m3.2167969 2c-.66981 0-1.21875.5248-1.21875 1.1875v3.8125h2v-3h3v-2zm5.78125 0v2h3.0000001v3h2v-3.8125c0-.6627-.54894-1.1875-1.21875-1.1875zm-1 3-3 3 3 3v-2h3.0000001v-2h-3.0000001zm-6 4v3.8125c0 .6627.54894 1.1875 1.21875 1.1875h3.78125v-2h-3v-3zm10.0000001 0v3h-3.0000001v2h3.7812501c.66981 0 1.21875-.5248 1.21875-1.1875v-3.8125z" fill="#e6ddff"/>
</svg>
